src/images/global/icons/action/search.svg

<?xml version="1.0" encoding="UTF-8"?>
<svg width="48px" height="48px" viewBox="0 0 48 48" version="1.1" xmlns="http://www.w3.org/2000/svg" xmlns:xlink="http://www.w3.org/1999/xlink">
    <!-- Generator: Sketch 46.2 (44496) - http://www.bohemiancoding.com/sketch -->
    <title>icon/Action/search</title>
    <desc>Created with Sketch.</desc>
    <defs>
        <path d="M23.5584432,20.9262503 C22.8820828,20.3011062 17.6750661,15.2434893 16.4436724,14.0470154 C17.4291799,12.6056695 18.0062622,10.8639087 18.0062622,8.9870938 C18.0061468,4.02362295 13.9753437,0 9.00313111,0 C4.03080304,0 0,4.02362295 0,8.9870938 C0,13.9505646 4.03080304,17.9741876 9.00313111,17.9741876 C10.7657777,17.9741876 12.4088289,17.4665822 13.7973359,16.5926481 C14.9169842,17.7013137 20.1716774,22.9006684 20.8882108,23.5564646 C21.213404,23.8538834 21.6046287,24 22.0038187,24 C22.4999779,23.9998848 23.0081428,23.7741415 23.4156444,23.3326803 C24.136449,22.55174 24.1978629,21.5171699 23.5584432,20.9262503 L23.5584432,20.9262503 Z M2.1921972,8.9870938 C2.1921972,5.23822287 5.24757038,2.18829223 9.00313111,2.18829223 C12.7586918,2.18829223 15.814065,5.23822287 15.814065,8.9870938 C15.814065,12.7359647 12.7586918,15.7858954 9.00313111,15.7858954 C5.24757038,15.7858954 2.1921972,12.7359647 2.1921972,8.9870938 L2.1921972,8.9870938 Z" id="path-1"></path>
    </defs>
    <g id="Symbols" stroke="none" stroke-width="1" fill="none" fill-rule="evenodd">
        <g id="icon/Action/search">
            <g id="Icon" transform="translate(12.000000, 12.000000)">
                <mask id="mask-2" fill="white">
                    <use xlink:href="#path-1"></use>
                </mask>
                <use id="Mask" fill="#384048" xlink:href="#path-1"></use>
                <g id="Color/Grayscale/Night-Sky" mask="url(#mask-2)" fill="#111111">
                    <g transform="translate(-12.000000, -12.000000)" id="Swatch">
                        <rect x="0" y="0" width="48" height="48"></rect>
                    </g>
                </g>
            </g>
        </g>
    </g>
</svg>

<?xml version="1.0" encoding="utf-8"?>
<!-- Generator: Adobe Illustrator 21.0.2, SVG Export Plug-In . SVG Version: 6.00 Build 0)  -->
<svg version="1.1" id="action-search-Layer_1" xmlns="http://www.w3.org/2000/svg" xmlns:xlink="http://www.w3.org/1999/xlink" x="0px" y="0px"
	 viewBox="0 0 48 48" style="enable-background:new 0 0 48 48;" xml:space="preserve">
<title>icon/Action/search</title>
<g transform="translate(12 12)">
	<g>
		<path id="action-search-a_1_" style="fill:#384048;" d="M23.6,20.9c-0.7-0.6-5.9-5.7-7.1-6.9c1-1.5,1.6-3.3,1.6-5.1c0-5-4-9-9-9C4,0,0,4,0,9
			c0,5,4,9,9,9c1.7,0,3.4-0.5,4.8-1.4c1.1,1.1,6.4,6.3,7.1,7c0.3,0.3,0.7,0.4,1.1,0.4c0.5,0,1-0.2,1.4-0.7
			C24.1,22.6,24.2,21.5,23.6,20.9z M2.2,9c0-3.7,3.1-6.8,6.8-6.8c3.8,0,6.8,3.1,6.8,6.8c0,3.7-3.1,6.8-6.8,6.8
			C5.2,15.8,2.2,12.7,2.2,9z"/>
	</g>
	<defs>
		<filter id="action-search-Adobe_OpacityMaskFilter" filterUnits="userSpaceOnUse" x="-12" y="-12" width="48" height="48">
			<feColorMatrix  type="matrix" values="1 0 0 0 0  0 1 0 0 0  0 0 1 0 0  0 0 0 1 0"/>
		</filter>
	</defs>
	<mask maskUnits="userSpaceOnUse" x="-12" y="-12" width="48" height="48" id="action-search-b">
		<g style="filter:url(#action-search-Adobe_OpacityMaskFilter);">
			<path id="action-search-a" style="fill:#FFFFFF;" d="M23.6,20.9c-0.7-0.6-5.9-5.7-7.1-6.9c1-1.5,1.6-3.3,1.6-5.1c0-5-4-9-9-9C4,0,0,4,0,9
				c0,5,4,9,9,9c1.7,0,3.4-0.5,4.8-1.4c1.1,1.1,6.4,6.3,7.1,7c0.3,0.3,0.7,0.4,1.1,0.4c0.5,0,1-0.2,1.4-0.7
				C24.1,22.6,24.2,21.5,23.6,20.9z M2.2,9c0-3.7,3.1-6.8,6.8-6.8c3.8,0,6.8,3.1,6.8,6.8c0,3.7-3.1,6.8-6.8,6.8
				C5.2,15.8,2.2,12.7,2.2,9z"/>
		</g>
	</mask>
	<g style="mask:url(#action-search-b);">
		<path style="fill:#111111;" d="M-12-12h48v48h-48V-12z"/>
	</g>
</g>
</svg>
